static/img/cam-server/ico-header-system.svg

<svg width="20" height="20" viewBox="0 0 20 20" fill="none" xmlns="http://www.w3.org/2000/svg">
<path d="M17.5 14.5V16.5C17.5 17.0523 17.0523 17.5 16.5 17.5H3.5C2.94771 17.5 2.5 17.0523 2.5 16.5V14.5H17.5Z" stroke="currentColor"/>
<rect x="2.5" y="8.5" width="15" height="6" stroke="currentColor"/>
<path d="M5 11H12V12H5V11Z" fill="currentColor"/>
<path d="M15.5 11.5C15.5 12.0523 15.0523 12.5 14.5 12.5C13.9477 12.5 13.5 12.0523 13.5 11.5C13.5 10.9477 13.9477 10.5 14.5 10.5C15.0523 10.5 15.5 10.9477 15.5 11.5Z" fill="currentColor"/>
<path d="M16.5 2.5C17.0523 2.5 17.5 2.94772 17.5 3.5V8.5H2.5V3.5L2.50488 3.39746C2.55621 2.89333 2.98232 2.5 3.5 2.5H16.5Z" stroke="currentColor"/>
<path d="M5 5H12V6H5V5Z" fill="currentColor"/>
<path d="M15.5 5.5C15.5 6.05228 15.0523 6.5 14.5 6.5C13.9477 6.5 13.5 6.05228 13.5 5.5C13.5 4.94772 13.9477 4.5 14.5 4.5C15.0523 4.5 15.5 4.94772 15.5 5.5Z" fill="currentColor"/>
</svg>

<svg xmlns="http://www.w3.org/2000/svg" width="20" height="20" fill="none" viewBox="0 0 20 20"><path stroke="currentColor" d="M17.5 14.5v2a1 1 0 0 1-1 1h-13a1 1 0 0 1-1-1v-2zM2.5 8.5h15v6h-15z"/><path fill="currentColor" d="M5 11h7v1H5zM15.5 11.5a1 1 0 1 1-2 0 1 1 0 0 1 2 0"/><path stroke="currentColor" d="M16.5 2.5a1 1 0 0 1 1 1v5h-15v-5l.005-.103A1 1 0 0 1 3.5 2.5z"/><path fill="currentColor" d="M5 5h7v1H5zM15.5 5.5a1 1 0 1 1-2 0 1 1 0 0 1 2 0"/></svg>
